packages/icons/src/SVG/thumbs-down.svg

<svg width="12" height="12" viewBox="0 0 12 12" >
<path d="M10 0V7H12V0H10Z" />
<path fill-rule="evenodd" clip-rule="evenodd" d="M7 8.76393L8 6.76393V1H2.61803L1 4.23607V6.5C1 6.77614 1.22386 7 1.5 7H6V10.5C6 10.7761 6.22386 11 6.5 11H7V8.76393ZM8 12H6.5C5.67157 12 5 11.3284 5 10.5V8H1.5C0.671573 8 0 7.32843 0 6.5V4L2 0H9V7L8 9V12Z" />
</svg>

<!-- Generated by IcoMoon.io -->
<svg version="1.1" xmlns="http://www.w3.org/2000/svg" width="12" height="12" viewBox="0 0 12 12">
<title>thumbs-down</title>
<path d="M10 0v7h2v-7h-2z"></path>
<path d="M7 8.764l1-2v-5.764h-5.382l-1.618 3.236v2.264c0 0.276 0.224 0.5 0.5 0.5h4.5v3.5c0 0.276 0.224 0.5 0.5 0.5h0.5v-2.236zM8 12h-1.5c-0.828 0-1.5-0.672-1.5-1.5v-2.5h-3.5c-0.828 0-1.5-0.672-1.5-1.5v-2.5l2-4h7v7l-1 2v3z"></path>
</svg>
